shader foo() {
    while (false) {
        continue;
    }
    while (true) {
        break;
    }
    for (int i = 0, j = 1; i < 3 && j < 4; ++i, --j);
    do {
        continue;
    } while (false);
    for (;;)
        break;
    int i;
    for (i = 0; i < 3; ++i)
        continue;
}
